**kern	**text	**kern	**text	**kern	**text	**kern	**text	**kern	**text	**cdata-harm
*staff5	*staff5	*staff4	*staff4	*staff3	*staff3	*staff2	*staff2	*staff1	*staff1	*
=1-	=1-	=1-	=1-	=1-	=1-	=1-	=1-	=1-	=1-	=1-
*clefF4	*	*clefGv2	*	*clefG2	*	*clefG2	*	*clefG2	*	*
*k[]	*	*k[]	*	*k[]	*	*k[]	*	*k[]	*	*
*M4/4	*	*M4/4	*	*M4/4	*	*M4/4	*	*M4/4	*	*
1r	.	1r	.	2r	.	1r	.	2cc\	Fu'l	<CON_5v
.	.	.	.	2cc\	Fu'l	.	.	[2ee\	lau-	.
=2	=2	=2	=2	=2	=2	=2	=2	=2	=2	.
1r	.	1r	.	2.a/	lau-	1r	.	4ee\]	.	.
.	.	.	.	.	.	.	.	4ff\	ro	.
.	.	.	.	.	.	.	.	2ee\	sem-	.
.	.	.	.	4g/	ro	.	.	.	.	.
=3	=3	=3	=3	=3	=3	=3	=3	=3	=3	.
1r	.	2r	.	4a/	sem-	1r	.	2cc\	pre	.
.	.	.	.	4cc\	pre	.	.	.	.	.
.	.	[2g\	Fu'l	2b\	ver-	.	.	2dd\	ver-	.
=4	=4	=4	=4	=4	=4	=4	=4	=4	=4	.
2c\	Fu'l	4g\]	.	1cc\	de	1r	.	2ee\	de	.
.	.	2e\	lau-	.	.	.	.	.	.	.
[2A\	lau-	.	.	.	.	.	.	2r	.	.
.	.	4f\	ro	.	.	.	.	.	.	.
=5	=5	=5	=5	=5	=5	=5	=5	=5	=5	.
4A\]	.	2e\	sem-	1r	.	1r	.	1r	.	.
4G\	ro	.	.	.	.	.	.	.	.	.
4A\	sem-	2c\	pre	.	.	.	.	.	.	.
4c\	pre	.	.	.	.	.	.	.	.	.
=6	=6	=6	=6	=6	=6	=6	=6	=6	=6	.
2B\	ver-	2d\	ver-	2r	.	2gg\	Fu'l	2r	.	.
2c\	de	2e\	de	2g/	Fu'l	[2ee\	lau-	2cc\	Fu'l	.
=7	=7	=7	=7	=7	=7	=7	=7	=7	=7	.
4r	.	1r	.	2.cc\	lau-	4ee\]	.	2.a/	lau-	.
4F\	Fu'l	.	.	.	.	4ff\	ro	.	.	.
4A\	lau-	.	.	.	.	2ee\	sem-	.	.	.
4c\	ro	.	.	4cc\	ro	.	.	4g/	ro	.
=8	=8	=8	=8	=8	=8	=8	=8	=8	=8	.
4A\	sem-	1r	.	4cc\	sem-	2cc\	pre	4a/	sem-	.
4A\	pre	.	.	4c/	pre	.	.	4cc\	pre	.
2G\	ver-	.	.	2g/	ver-	2dd\	ver-	2b\	ver-	.
=9	=9	=9	=9	=9	=9	=9	=9	=9	=9	.
1C/	de	2r	.	1g/	de-	2ee\	de	1cc\	de	>
.	.	4c\	Ma	.	.	4ee\	Ma	.	.	<ANTIFlib_3v
.	.	4d\	per	.	.	4ff\	per	.	.	.
=10	=10	=10	=10	=10	=10	=10	=10	=10	=10	.
1r	.	2e\	te	1r	.	4gg\	te	1r	.	.
.	.	.	.	.	.	2gg\	so-	.	.	.
.	.	4g\	so-	.	.	.	.	.	.	.
.	.	4a\	lain-	.	.	4ee\	lain-	.	.	.
=11	=11	=11	=11	=11	=11	=11	=11	=11	=11	.
4F\	ma	2f\	gra-	4a/	Ma	2ff\	gra-	2r	.	.
4G\	per	.	.	4b\	per	.	.	.	.	.
2A\	te	2c\	ta	4cc\	te	[2ee\	ta	4cc\	Ma	.
.	.	.	.	4a/	so-	.	.	4dd\	per	.
=12	=12	=12	=12	=12	=12	=12	=12	=12	=12	.
4c\	so-	1r	.	4g/	lain-	2ee\]	.	2ee\	te	.
4c\	lain-	.	.	2a/	gra-	.	.	.	.	.
2d\	gra-	.	.	.	.	4a/	Ma	2r	.	.
.	.	.	.	8g/L	.	4b\	per	.	.	.
.	.	.	.	8f/J	.	.	.	.	.	.
=13	=13	=13	=13	=13	=13	=13	=13	=13	=13	.
[1c\	ta	4c\	Ma	4g/	.	4cc\	te-	4ee\	Ma	.
.	.	4d\	per	4f/	.	8b/L	.	4ff\	per	.
.	.	.	.	.	.	8a/J	.	.	.	.
.	.	4e\	te	4.e/	.	4g/	.	2gg\	te	.
.	.	[4g\	so-	.	.	[4cc\	so-	.	.	.
.	.	.	.	8d/	.	.	.	.	.	.
=14	=14	=14	=14	=14	=14	=14	=14	=14	=14	.
1c\]	.	4g\]	.	4e/	.	4cc\]	.	4gg\	so-	.
.	.	4f\	lain-	4f/	.	4cc\	lain-	4aa\	lain-	.
.	.	2e\	gra-	2g/	.	2cc\	gra-	2gg\	gra-	.
=15	=15	=15	=15	=15	=15	=15	=15	=15	=15	.
2r	.	2.f\	ta	2a/	ta	1cc\	ta	1ff\	ta	>
2F\	I	.	.	2a/	I	.	.	.	.	<CON_5v
.	.	4c\	I-	.	.	.	.	.	.	.
=16	=16	=16	=16	=16	=16	=16	=16	=16	=16	.
4E\	dol-	4c\	dol-	4.g/	dol-	1r	.	2r	.	.
4E\	cie	4c\	cie	.	.	.	.	.	.	.
.	.	.	.	8a/	cie	.	.	.	.	.
2D\	ca-	2d\	ca-	4b-\	ca-	.	.	2ff\	I	.
.	.	.	.	4a/	ri	.	.	.	.	.
=17	=17	=17	=17	=17	=17	=17	=17	=17	=17	.
2C#/	ri	2e\	ri	2a/	pri-	1r	.	4ee\	dol-	.
.	.	.	.	.	.	.	.	4ee\	cie	.
8D\L	pri-	4r	.	4f/	vi-	.	.	2dd\	ca-	.
8E\J	.	.	.	.	.	.	.	.	.	.
8F\L	.	4f\	I	[4a/	le-	.	.	.	.	.
8G\J	.	.	.	.	.	.	.	.	.	.
=18	=18	=18	=18	=18	=18	=18	=18	=18	=18	.
4A\	.	4e\	dol-	4a/]	.	2r	.	2cc#\	ri	.
4A\	vi-	4e\	cie	4a/	gihor	.	.	.	.	.
4D\	le-	2d\	ca-	[2a/	per-	2ff\	I	4.dd\	pri-	.
4D\	gihor	.	.	.	.	.	.	.	.	.
.	.	.	.	.	.	.	.	8dd\	vi-	.
=19	=19	=19	=19	=19	=19	=19	=19	=19	=19	.
2A\	per-	2c#\	ri	2a/]	.	4ee\	dol-	4ee\	le-	.
.	.	.	.	.	.	4ee\	cie	4a/	gihor	.
2D\	de.	2d\	pri-	[2a/	de	2dd\	ca-	2ff\	per-	.
=20	=20	=20	=20	=20	=20	=20	=20	=20	=20	.
1r	.	4A/	vi-	4a/]	.	2cc#\	ri	2ee\	de	.
.	.	[4a\	le-	4A/	hor	.	.	.	.	.
.	.	8a\L]	.	4.d/	per-	[2dd\	pri-	2r	.	.
.	.	8g\J	.	.	.	.	.	.	.	.
.	.	8f\L	.	.	.	.	.	.	.	.
.	.	8e\J	.	8e/	.	.	.	.	.	.
=21	=21	=21	=21	=21	=21	=21	=21	=21	=21	.
1r	.	2.d\	.	4.f/	.	2dd\]	.	4r	.	.
.	.	.	.	.	.	.	.	2a/	pri-	.
.	.	.	.	8e/	.	.	.	.	.	.
.	.	.	.	8f/L	.	2dd\	vi-	.	.	.
.	.	.	.	8g/J	.	.	.	.	.	.
.	.	4f\	gihor	[4a/	.	.	.	4a/	vi-	.
=22	=22	=22	=22	=22	=22	=22	=22	=22	=22	.
1r	.	2e\	per-	8a/L]	.	4ee\	le-	4b\	le-	.
.	.	.	.	8g/J	.	.	.	.	.	.
.	.	.	.	2g/	.	4cc\	gihor	4g/	gihor	.
.	.	2d\	de.	.	.	2dd\	per-	2a/	per-	.
.	.	.	.	4f#/	.	.	.	.	.	.
=23	=23	=23	=23	=23	=23	=23	=23	=23	=23	.
2r	.	2r	.	[1g/	de.	1dd\	de.	1b\	de.	>
2G\	Quan-	2d\	Quan-	.	.	.	.	.	.	<ANTIF_2v
=24	=24	=24	=24	=24	=24	=24	=24	=24	=24	.
2c\	doe-	2e\	doe-	1g/]	.	1r	.	1r	.	.
4c\	ri	4e\	ri	.	.	.	.	.	.	.
[4c\	del-	[4e\	del-	.	.	.	.	.	.	.
=25	=25	=25	=25	=25	=25	=25	=25	=25	=25	.
4c\]	.	4e\]	.	1r	.	1r	.	1r	.	.
4B\	tuo	4d\	tuo	.	.	.	.	.	.	.
4A\	ver-	4f\	ver-	.	.	.	.	.	.	.
4G\	dea-	4e\	dea-	.	.	.	.	.	.	.
=26	=26	=26	=26	=26	=26	=26	=26	=26	=26	.
4F\	man-	4d\	man-	1r	.	2r	.	2r	.	.
4E\	door-	4c\	door-	.	.	.	.	.	.	.
2D\	na-	2B\	na-	.	.	4r	.	2dd\	Quan-	.
.	.	.	.	.	.	4dd\	Quan-	.	.	.
=27	=27	=27	=27	=27	=27	=27	=27	=27	=27	.
[1C/	ta	1c\	ta	1r	.	2ee\	doe-	2gg\	doe-	.
.	.	.	.	.	.	4ee\	ri	4gg\	ri	.
.	.	.	.	.	.	[4ee\	del	[4gg\	del	.
=28	=28	=28	=28	=28	=28	=28	=28	=28	=28	.
1C/]	.	1r	.	1r	.	4ee\]	.	4gg\]	.	.
.	.	.	.	.	.	4dd\	tuo	4ff\	tuo	.
.	.	.	.	.	.	4cc\	ver-	4ee\	ver-	.
.	.	.	.	.	.	4b\	dea-	4dd\	dea-	.
=29	=29	=29	=29	=29	=29	=29	=29	=29	=29	.
1r	.	1r	.	2c/	Dol-	4a/	man-	4cc\	man-	<<ANTIF_5v
.	.	.	.	.	.	4g/	door-	4b\	door-	.
.	.	.	.	4d/	ceio	2f#/	na-	2a/	na-	.
.	.	.	.	4d/	se-	.	.	.	.	.
=30	=30	=30	=30	=30	=30	=30	=30	=30	=30	.
2c\	Dol-	1r	.	4.e/	gui-	4g/	ta	1g/	ta	>
.	.	.	.	.	.	4cc\	Dol-	.	.	.
.	.	.	.	8e/	va	.	.	.	.	.
4B\	ceio	.	.	4d/	l'a-	4dd\	ce	.	.	.
4B\	se-	.	.	4d/	mo-	4dd\	se-	.	.	.
=31	=31	=31	=31	=31	=31	=31	=31	=31	=31	.
2c\	gui-	4r	.	4g/	ro-	2ee\	gui-	4r	.	.
.	.	4c\	Dol-	4g/	sain-	.	.	4cc\	Dol-	.
2G\	va	4B\	ceio	2g/	se-	2dd\	va	4dd\	ceio	.
.	.	4B\	se-	.	.	.	.	4dd\	se-	.
=32	=32	=32	=32	=32	=32	=32	=32	=32	=32	.
1r	.	4.c\	gui-	1g/	gna	1r	.	4.ee\	gui-	.
.	.	8c\	va	.	.	.	.	8ee\	va	.
.	.	4c\	l'a-	.	.	.	.	4ee\	l'a-	.
.	.	4B\	mo-	.	.	.	.	4dd\	mo-	.
=33	=33	=33	=33	=33	=33	=33	=33	=33	=33	.
2c\	Dol-	4A/	ro-	1r	.	4r	.	4cc\	ro-	.
.	.	4A/	sain-	.	.	4cc\	Dol-	4ee\	sain-	.
4B\	ceio	2G/	se-	.	.	4dd\	ce	2gg\	se-	.
4B\	se-	.	.	.	.	4dd\	se-	.	.	.
=34	=34	=34	=34	=34	=34	=34	=34	=34	=34	.
4.c\	gui-	2c\	gna	1r	.	4.ee\	gui-	1gg\	gna-	.
8c\	va	.	.	.	.	8ee\	va	.	.	.
4c\	l'a-	2r	.	.	.	4ee\	l'a-	.	.	.
4B\	mo-	.	.	.	.	4dd\	mo-	.	.	.
=35	=35	=35	=35	=35	=35	=35	=35	=35	=35	.
4A\	ro-	2c\	Dol-	4r	.	4cc\	ro-	1r	.	.
4A\	sain-	.	.	4cc\	Dol-	4ee\	sain-	.	.	.
2G\	se-	4d\	ceio	4b\	ceio	2gg\	se-	.	.	.
.	.	4d\	se-	4b\	se-	.	.	.	.	.
=36	=36	=36	=36	=36	=36	=36	=36	=36	=36	.
4C/	gna	4.e\	gui-	4.cc\	gui-	1gg\	gna;	4r	.	.
2C/	l'a-	.	.	.	.	.	.	2g/	l'a-	.
.	.	8e\	va	8cc\	va	.	.	.	.	.
.	.	4e\	l'a-	4cc\	l'a-	.	.	.	.	.
4G\	mo-	4d\	mo-	4b\	mo-	.	.	4g/	mo-	.
=37	=37	=37	=37	=37	=37	=37	=37	=37	=37	.
4A\	ro-	4c\	ro-	4a/	ro-	1r	.	4cc\	ro-	.
4A\	sain-	4e\	sain-	4cc\	sain-	.	.	4cc\	sain-	.
2G\	se-	2g\	se-	2b\	se-	.	.	2dd\	se-	.
=38	=38	=38	=38	=38	=38	=38	=38	=38	=38	.
2C/	gna;	2g\	gna;	2cc\	gna;	1r	.	2ee\	gna;	>>
2F\	Ma	2f\	Ma	2a/	Ma	.	.	2cc\	Ma	<ANTIF_2v
=39	=39	=39	=39	=39	=39	=39	=39	=39	=39	.
2F\	poi	1f\	poi	2a/	poi	1r	.	1cc\	poi	.
4F\	che	.	.	4a/	che	.	.	.	.	.
[4F\	sec-	.	.	[4a/	sec-	.	.	.	.	.
=40	=40	=40	=40	=40	=40	=40	=40	=40	=40	.
4F\]	.	2c\	Ma	4a/]	.	2cc\	Ma	4r	.	.
4F\	ca	.	.	4g/	ca	.	.	4g/	Ma	.
2F\	pian-	2c\	poi	2f/	pian-	2cc\	poi	2a/	poi	.
=41	=41	=41	=41	=41	=41	=41	=41	=41	=41	.
2C/	ta	4c\	che	[1g/	ta	4cc\	che	4ee\	che	.
.	.	2c\	sec-	.	.	2cc\	sec-	2ee\	sec-	.
2r	.	.	.	.	.	.	.	.	.	.
.	.	4B\	ca	.	.	4dd\	ca	4dd\	ca	.
=42	=42	=42	=42	=42	=42	=42	=42	=42	=42	.
1r	.	2c\	pian-	1g/]	.	2ee\	pian-	2cc\	pian-	.
.	.	2G/	ta-	.	.	2dd\	ta	2b\	ta	>
=43	=43	=43	=43	=43	=43	=43	=43	=43	=43	.
2r	.	2r	.	2r	.	1r	.	2r	.	.
2G\	Per	2B\	Per	2g/	Per-	.	.	2dd\	Per	<HOM_4v
=44	=44	=44	=44	=44	=44	=44	=44	=44	=44	.
2G\	me	2B\	me	2g/	me	1r	.	2dd\	me	.
4D\	che	4A/	che	4f/	che	.	.	4dd\	che	.
[4F\	mai	[4a\	mai-	[4f/	mai-	.	.	[4cc\	mai	.
=45	=45	=45	=45	=45	=45	=45	=45	=45	=45	.
4F\]	.	4a\]	.	4f/]	.	1r	.	4cc\]	.	.
4G\	rin-	4g\	rin-	4d/	rin-	.	.	4b\	rin-	.
2A\	ver-	2f#\	ver-	2c/	ver-	.	.	2cc\	ver-	.
=46	=46	=46	=46	=46	=46	=46	=46	=46	=46	.
4G\	da	2g\	da	4d/	da	2r	.	4b\	da	>
2c\	pur	.	.	2e/	pur	.	.	2cc\	pur	<CONlib_5v+1trip
.	.	2r	.	.	.	[2g/	pur	.	.	.
4B\	ti	.	.	4d/	ti	.	.	4dd\	ti	.
=47	=47	=47	=47	=47	=47	=47	=47	=47	=47	.
2c\	scer-	2r	.	2c/	scer-	4g/]	.	4ee\	scer-	.
.	.	.	.	.	.	4a/	ti	8dd\L	.	.
.	.	.	.	.	.	.	.	8cc\J	.	.
2G\	no	4r	.	4g/	no	4b\	scer-	2dd\	.	.
.	.	[4g\	pur	4G/	ti	8a/L	.	.	.	.
.	.	.	.	.	.	8g/J	.	.	.	.
=48	=48	=48	=48	=48	=48	=48	=48	=48	=48	.
1r	.	4g\]	.	2d/	scer-	2a/	.	1dd\	no	.
.	.	4f#\	ti	.	.	.	.	.	.	.
.	.	2g\	scer-	2G/	no	2b\	.	.	.	.
=49	=49	=49	=49	=49	=49	=49	=49	=49	=49	.
4r	.	4c\	no	1r	.	1g/	no	4r	.	>
4c\	E	4e\	E	.	.	.	.	4ee\	E	<ANTIF_2v
4c\	ch'&agrave;	4c\	ch'&agrave;	.	.	.	.	4ee\	ch'&agrave;	.
4B\	l'an-	4d\	l'an-	.	.	.	.	4dd\	l'an-	.
=50	=50	=50	=50	=50	=50	=50	=50	=50	=50	.
4A\	ti-	4e\	ti-	1r	.	1r	.	4cc\	ti-	.
4G\	cae	4e\	cae	.	.	.	.	4b\	cae	.
2F\	tan-	8A\L	tan-	.	.	.	.	2a/	tan-	.
.	.	8B\J	.	.	.	.	.	.	.	.
.	.	8c\L	.	.	.	.	.	.	.	.
.	.	8d\J	.	.	.	.	.	.	.	.
=51	=51	=51	=51	=51	=51	=51	=51	=51	=51	.
4E\	ta-	4e\	.	2r	.	2r	.	4g/	ta	.
[4F\	leg-	8d\L	.	.	.	.	.	[4a/	leg-	.
.	.	8c\J	.	.	.	.	.	.	.	.
8F\L]	.	4d\	.	4r	.	4r	.	8a/L]	.	.
8F\J	ge	.	.	.	.	.	.	8a/J	ge	.
4E\	d'a-	4e\	ta	4cc\	E	4ee\	E	4g/	d'a-	.
=52	=52	=52	=52	=52	=52	=52	=52	=52	=52	.
2G\	mor	2r	.	4cc\	ch'&agrave;	4ee\	ch'&agrave;	2g/	mor	.
.	.	.	.	4b\	l'an-	4dd\	l'an-	.	.	.
2r	.	4r	.	4a/	ti-	4cc\	ti-	2r	.	.
.	.	4e\	E	4g/	cae	4b\	cae	.	.	.
=53	=53	=53	=53	=53	=53	=53	=53	=53	=53	.
1r	.	2A/	tan-	2cc\	tan-	2a/	tan-	1r	.	.
.	.	4e\	ta	4b\	ta	4g/	ta	.	.	.
.	.	[4f\	leg-	[4a/	leg-	[4cc\	leg-	.	.	.
=54	=54	=54	=54	=54	=54	=54	=54	=54	=54	.
2r	.	8f\L]	.	8a/L]	.	8cc\L]	.	4r	.	.
.	.	8f\J	ge	8a/J	ge	8cc\J	ge	.	.	.
.	.	4e\	d'a-	4cc\	d'a-	4ee\	d'a-	2g/	pro-	.
2G\	pro-	2g\	mor	2b\	mor	2dd\	mor	.	.	><CONlib_5v
.	.	.	.	.	.	.	.	[4gg\	fa-	.
=55	=55	=55	=55	=55	=55	=55	=55	=55	=55	.
4.c\	fa-	2.e\	pro-	4r	.	2r	.	8gg\L]	.	.
.	.	.	.	.	.	.	.	8ff\J	.	.
.	.	.	.	4g/	pro-	.	.	8ee\L	.	.
8B\	.	.	.	.	.	.	.	8dd\J	.	.
8A\L	.	.	.	4.cc\	fa-	4r	.	4ee\	.	.
8G\J	.	.	.	.	.	.	.	.	.	.
[4F\	na	[4f\	fa-	.	.	[4cc\	pro-	[4a/	nahai	.
.	.	.	.	8b\	.	.	.	.	.	.
=56	=56	=56	=56	=56	=56	=56	=56	=56	=56	.
4F\]	.	4f\]	.	8a/L	.	4cc\]	.	4a/]	.	.
.	.	.	.	8g/J	.	.	.	.	.	.
4F\	hai	4f\	nahai	2f/	.	2ff\	fa-	[4a/	fat-	.
4F\	fat-	8c\L	fat-	.	.	.	.	8a\L]	.	.
.	.	8d\J	.	.	.	.	.	8b\J	.	.
4C/	to	8e\L	.	4g/	nahai	4ee\	nahai	8cc\L	.	.
.	.	8c\J	.	.	.	.	.	8a\J	.	.
=57	=57	=57	=57	=57	=57	=57	=57	=57	=57	.
1G\	scher-	4d\	.	4g/	fat-	4dd\	fat-	4b\	.	.
.	.	4e\	to	4g/	to	4cc\	to	4cc\	to	.
.	.	2d\	scher-	2g/	scher-	2b\	scher-	2dd\	scher-	.
=58	=58	=58	=58	=58	=58	=58	=58	=58	=58	.
1C/	no	2c\	no	2g/	no	2cc\	no	2ee\	no	>
.	.	4c\	Sec-	4g/	Sec-	4cc\	Sec-	4ee\	Sec-	<HOM_4v
.	.	4c\	coe	4g/	coe	4cc\	coe	4ee\	coe	.
=59	=59	=59	=59	=59	=59	=59	=59	=59	=59	.
1r	.	2f\	vuo-	2a/	vuo-	2cc\	vuo-	2ff\	vuo-	.
.	.	4d\	to&egrave;'l	4a/	to&egrave;'l	4dd\	to&egrave;'l	4ff\	to&egrave;'l	.
.	.	4e\	mio	4g#/	mio	4b\	mio	4ee\	mio	.
=60	=60	=60	=60	=60	=60	=60	=60	=60	=60	.
2r	.	4A/	co-	4a/	co-	4cc#\	co-	4ee\	co-	.
.	.	4A/	re	4a/	re	4cc#\	re	4ee\	re	>
4A\	Vuo-	2r	.	4a/	Vuo-	2r	.	4cc#\	Vuo-	<ANTIF_2v
4G\	toin-	.	.	4b\	toin-	.	.	4dd\	toin-	.
=61	=61	=61	=61	=61	=61	=61	=61	=61	=61	.
2c\	sie-	2r	.	2cc\	sie-	2r	.	2ee\	sie-	.
4c\	me	4e\	Vuo-	4g/	me	4cc\	Vuo-	4gg\	me	.
4B\	di	4d\	toin-	4g/	di	4dd\	toin-	[4gg\	di	.
=62	=62	=62	=62	=62	=62	=62	=62	=62	=62	.
4.c\	la-	2g\	sie-	4.e/	la-	4ee\	sie-	4gg\]	.	.
.	.	.	.	.	.	2cc\	me	2ee\	la-	.
8B\	gri-	.	.	8d/	.	.	.	.	.	.
4A\	mee	4g\	me	4c/	.	.	.	.	.	.
4A\	d'a-	4f\	di	4c/	gri-	4a/	di	4cc\	gri-	.
=63	=63	=63	=63	=63	=63	=63	=63	=63	=63	.
[1G\	mo-	4.g\	la-	4B/	mee	4.b\	la-	4ee\	mee	.
.	.	.	.	4G/	d'a-	.	.	2dd\	d'a-	.
.	.	8f\	gri-	.	.	8a/	gri-	.	.	.
.	.	4e\	mee	2g/	mo-	4b\	mee	.	.	.
.	.	4e\	d'a-	.	.	4cc\	d'a-	[4cc\	mo-	.
=64	=64	=64	=64	=64	=64	=64	=64	=64	=64	.
1G\]	.	1d\	mo-	1g/	re	1dd\	mo-	4cc\]	.	.
.	.	.	.	.	.	.	.	8b/L	.	.
.	.	.	.	.	.	.	.	8a/J	.	.
.	.	.	.	.	.	.	.	2b\	.	.
=65	=65	=65	=65	=65	=65	=65	=65	=65	=65	.
1C/	re	2c\	re	2r	.	2ee\	re	2cc\	re	>
.	.	4c\	Sec-	4g/	Sec-	4ee\	Sec-	4cc\	Sec-	<HOMrep_4v
.	.	4c\	coe	4g/	coe	4ee\	coe	4cc\	coe	.
=66	=66	=66	=66	=66	=66	=66	=66	=66	=66	.
1r	.	2f\	vuo-	2a/	vuo-	2ff\	vuo-	2cc\	vuo-	.
.	.	4d\	to&egrave;'l	4a/	to&egrave;'l	4ff\	to&egrave;'l	4dd\	to&egrave;'l	.
.	.	4e\	mio	4g#/	mio	4ee\	mio	4b\	mio	.
=67	=67	=67	=67	=67	=67	=67	=67	=67	=67	.
2r	.	4A/	co-	4a/	co-	4ee\	co-	4cc#\	co-	.
.	.	4A/	re	4a/	re	4ee\	re	4cc#\	re	>
4A\	Vuo-	2r	.	4a/	Vuo-	4cc#\	Vuo-	2r	.	<ANTIFrep_2v
4G\	toin-	.	.	4b\	toin-	4dd\	toin-	.	.	.
=68	=68	=68	=68	=68	=68	=68	=68	=68	=68	.
2c\	sie-	2r	.	2cc\	sie-	2ee\	sie-	2r	.	.
4c\	me	4e\	Vuo-	4g/	me	4gg\	me	4cc\	Vuo-	.
4B\	di	4d\	toin-	4g/	di	[4gg\	di-	4dd\	toin	.
=69	=69	=69	=69	=69	=69	=69	=69	=69	=69	.
4.c\	la-	2g\	sie-	4.e/	la-	4gg\]	.	4ee\	sie-	.
.	.	.	.	.	.	2ee\	la-	2cc\	me	.
8B\	gri-	.	.	8d/	.	.	.	.	.	.
4A\	mee	4g\	me	4c/	.	.	.	.	.	.
4A\	d'a-	4f\	di-	4c/	gri-	4cc\	gri-	4a/	di	.
=70	=70	=70	=70	=70	=70	=70	=70	=70	=70	.
[1G\	mo-	4.g\	la-	4B/	mee	4ee\	mee	4.b\	la-	.
.	.	.	.	4G/	d'a-	2dd\	d'a-	.	.	.
.	.	8f\	gri-	.	.	.	.	8a/	gri-	.
.	.	4e\	mee	2g/	mo-	.	.	4b\	mee	.
.	.	4e\	d'a-	.	.	[4cc\	mo-	4cc\	d'a-	.
=71	=71	=71	=71	=71	=71	=71	=71	=71	=71	.
1G\]	.	1d\	mo-	[1g/	re.	4cc\]	.	1dd\	mo-	.
.	.	.	.	.	.	8b/L	.	.	.	.
.	.	.	.	.	.	8a/J	.	.	.	.
.	.	.	.	.	.	2b\	.	.	.	.
=72	=72	=72	=72	=72	=72	=72	=72	=72	=72	.
1C/	re.	1c\	re.	1g/]	.	1cc\	re.	1ee\	re.	>
==	==	==	==	==	==	==	==	==	==	==
*-	*-	*-	*-	*-	*-	*-	*-	*-	*-	*-